ix/note-add_broken.svg

<svg viewBox="0 0 24 24" fill="none" xmlns="http://www.w3.org/2000/svg" height="1em" width="1em">
  <path d="M9.56055 18V13" stroke="#292D32" stroke-width="1.5" stroke-miterlimit="10" stroke-linecap="round" stroke-linejoin="round"/>
  <path d="M12 15.5H7" stroke="#292D32" stroke-width="1.5" stroke-miterlimit="10" stroke-linecap="round" stroke-linejoin="round"/>
  <path d="M8 2V5" stroke="#292D32" stroke-width="1.5" stroke-miterlimit="10" stroke-linecap="round" stroke-linejoin="round"/>
  <path d="M16 2V5" stroke="#292D32" stroke-width="1.5" stroke-miterlimit="10" stroke-linecap="round" stroke-linejoin="round"/>
  <path d="M2.93983 9.82992C2.83983 5.12992 4.48983 3.82992 7.80983 3.57992L15.8098 3.41992C19.1498 3.53992 20.8398 4.76992 20.9398 9.46992L21.0698 15.6399C21.1498 19.7599 20.1998 21.8299 15.1998 21.9399L9.19983 22.0599C4.19983 22.1599 3.15983 20.1199 3.07983 16.0099L3.03983 13.8899" stroke="#292D32" stroke-width="1.5" stroke-miterlimit="10" stroke-linecap="round" stroke-linejoin="round"/>
</svg>

<svg viewBox="0 0 24 24" fill="none" xmlns="http://www.w3.org/2000/svg" height="1em" width="1em">
  <path d="M9.56 18v-5M12 15.5H7M8 2v3m8-3v3M2.94 9.83c-.1-4.7 1.55-6 4.87-6.25l8-.16c3.34.12 5.03 1.35 5.13 6.05l.13 6.17c.08 4.12-.87 6.19-5.87 6.3l-6 .12c-5 .1-6.04-1.94-6.12-6.05l-.04-2.12" stroke="#292D32" stroke-width="1.5" stroke-miterlimit="10" stroke-linecap="round" stroke-linejoin="round"/>
</svg>
